X: 14
T: Toss The Feathers
Z: shanachie
S: https://thesession.org/tunes/113#setting46238
R: reel
M: 4/4
L: 1/8
K: Edor
EB B2 dBBA|EBBA FDFA|BE E2 B2AB|dffe dBAF|
EB B2 dBBA|EBBA FDFA|BE E2 B2AB|dffe dBAd||
fedf e2de|fede fe e2|febe febe|fede feed|
Beef e2de|fede fa a2|b3f a3f|effe dBAF||

